icons/discriminating_concentration_bioassays.svg

<svg width="48" height="48" viewBox="0 0 48 48" fill="none" xmlns="http://www.w3.org/2000/svg">
<path fill-rule="evenodd" clip-rule="evenodd" d="M28 8H37V10H28V8ZM27.5333 12H26V8C26 6.89543 26.8954 6 28 6H37C38.1046 6 39 6.89543 39 8V12H37.4667V14.1949C37.4667 15.0557 37.8364 15.875 38.4818 16.4444L40.3081 18.0559C41.3838 19.005 42 20.3705 42 21.8051V37C42 39.7614 39.7614 42 37 42H28C25.2386 42 23 39.7614 23 37V21.8051C23 20.3705 23.6162 19.005 24.6919 18.0559L26.5182 16.4444C27.1636 15.875 27.5333 15.0557 27.5333 14.1949V12ZM35.4667 12V14.1949C35.4667 15.6295 36.0829 16.995 37.1586 17.9441L38.9849 19.5556C39.6303 20.125 40 20.9443 40 21.8051V37C40 38.6569 38.6569 40 37 40H28C26.3431 40 25 38.6569 25 37V21.8051C25 20.9443 25.3697 20.125 26.0151 19.5556L27.8414 17.9441C28.9171 16.995 29.5333 15.6295 29.5333 14.1949V12H35.4667ZM32.5 21C32.7761 21 33 21.2239 33 21.5V24.2276C33.2805 24.492 33.5227 24.9726 33.6985 25.5944L34.5 24.7929V23.5C34.5 23.3674 34.5527 23.2402 34.6464 23.1464L36.1464 21.6464C36.3417 21.4512 36.6583 21.4512 36.8535 21.6464C37.0488 21.8417 37.0488 22.1583 36.8535 22.3536L35.5 23.7071V25C35.5 25.1326 35.4473 25.2598 35.3535 25.3536L33.9287 26.7784C33.9398 26.8707 33.9497 26.9644 33.9583 27.0595L38.7624 27.8571C38.9189 28.5714 38.6686 30 36.4159 30C35.1129 30 34.3752 29.3309 33.9847 28.5732C33.9733 28.7854 33.9556 28.9922 33.9322 29.1922L36.2867 30.8404C36.4769 30.9735 36.5505 31.2201 36.4642 31.4357L36.1473 32.228L37.1923 32.6635C37.4472 32.7697 37.5677 33.0624 37.4615 33.3173C37.3553 33.5722 37.0626 33.6927 36.8077 33.5865L35.3077 32.9615C35.0554 32.8564 34.9342 32.5681 35.0358 32.3143L35.3886 31.4323L33.7341 30.2742C33.6725 30.5117 33.6014 30.7305 33.5224 30.9268L33.9472 31.7764C33.9819 31.8458 34 31.9224 34 32V32.9496L35.3904 34.6877C35.5629 34.9033 35.528 35.2179 35.3123 35.3904C35.0967 35.5629 34.7821 35.528 34.6096 35.3123L33.1096 33.4373C33.0386 33.3487 33 33.2385 33 33.125V32.118L32.8772 31.8725C32.7567 31.9557 32.6303 32 32.5 32C32.3887 32 32.2803 31.9677 32.1759 31.9064L32 32.3463V33.125C32 33.2385 31.9614 33.3487 31.8904 33.4373L30.3904 35.3123C30.2179 35.528 29.9033 35.5629 29.6877 35.3904C29.472 35.2179 29.4371 34.9033 29.6096 34.6877L31 32.9496V32.25C31 32.1864 31.0121 32.1234 31.0358 32.0643L31.4842 30.9432C31.4025 30.7427 31.3292 30.5183 31.2659 30.2742L29.6114 31.4323L29.9642 32.3143C30.0658 32.5681 29.9446 32.8564 29.6923 32.9615L28.1923 33.5865C27.9374 33.6927 27.6447 33.5722 27.5385 33.3173C27.4323 33.0624 27.5528 32.7697 27.8077 32.6635L28.8527 32.228L28.5358 31.4357C28.4495 31.2201 28.5231 30.9735 28.7133 30.8404L31.0677 29.1922C31.0286 28.8576 31.0055 28.5042 31.0009 28.1382C30.6834 29.0542 29.9332 30 28.3841 30C26.1314 30 25.8811 28.5714 26.0376 27.8571L31.0448 27.0258C31.0526 26.9422 31.0615 26.8597 31.0712 26.7783L29.6464 25.3536C29.5527 25.2598 29.5 25.1326 29.5 25V23.7071L28.1464 22.3536C27.9512 22.1583 27.9512 21.8417 28.1464 21.6464C28.3417 21.4512 28.6583 21.4512 28.8535 21.6464L30.3535 23.1464C30.4473 23.2402 30.5 23.3674 30.5 23.5V24.7929L31.3015 25.5944C31.4772 24.9726 31.7195 24.492 32 24.2276V21.5C32 21.2239 32.2239 21 32.5 21ZM28.3841 29C27.6338 29 27.3152 28.8112 27.1801 28.6811L29.8586 28.2364C29.8425 28.263 29.8257 28.2893 29.8083 28.3151C29.5596 28.683 29.1571 29 28.3841 29ZM36.4159 29C37.1662 29 37.4848 28.8112 37.6199 28.6811L34.9414 28.2364C34.9575 28.263 34.9743 28.2893 34.9917 28.3151C35.2404 28.683 35.6429 29 36.4159 29ZM33 28C33 29.0164 32.8438 29.892 32.6243 30.4773C32.5818 30.5908 32.5397 30.6857 32.5 30.7642C32.4603 30.6857 32.4182 30.5908 32.3757 30.4773C32.1562 29.892 32 29.0164 32 28C32 26.9836 32.1562 26.108 32.3757 25.5227C32.4182 25.4092 32.4603 25.3143 32.5 25.2358C32.5397 25.3143 32.5818 25.4092 32.6243 25.5227C32.8438 26.108 33 26.9836 33 28ZM6 14.1429H6.74999V15.2447C6.74999 15.9052 7.01589 16.5379 7.48772 17.0001C7.57552 17.0861 7.62499 17.2038 7.62499 17.3267V30.6733C7.62499 30.7962 7.57552 30.9139 7.48772 30.9999C7.01589 31.4621 6.74999 32.0948 6.74999 32.7553V33.8571H6V39H20V33.8571H19.25V32.7553C19.25 32.0948 18.9841 31.4621 18.5123 30.9999C18.4245 30.9139 18.375 30.7962 18.375 30.6733V17.3267C18.375 17.2038 18.4245 17.0861 18.5123 17.0001C18.9841 16.5379 19.25 15.9052 19.25 15.2447V14.1429H20V9H6V14.1429ZM17.25 33.8571V32.7553C17.25 32.6324 17.2005 32.5147 17.1127 32.4287C16.6409 31.9665 16.375 31.3338 16.375 30.6733V17.3267C16.375 16.6663 16.6409 16.0336 17.1127 15.5714C17.2005 15.4854 17.25 15.3676 17.25 15.2447V14.1429H16V12.4286C16 11.8763 15.5523 11.4286 15 11.4286C14.4477 11.4286 14 11.8763 14 12.4286V14.1429H12V12.4286C12 11.8763 11.5523 11.4286 11 11.4286C10.4477 11.4286 9.99999 11.8763 9.99999 12.4286V14.1429H8.74999V15.2447C8.74999 15.3676 8.79947 15.4854 8.88727 15.5714C9.3591 16.0336 9.62499 16.6663 9.62499 17.3267V30.6733C9.62499 31.3338 9.3591 31.9665 8.88727 32.4287C8.79947 32.5147 8.74999 32.6324 8.74999 32.7553V33.8571H9.99999V35C9.99999 35.5523 10.4477 36 11 36C11.5523 36 12 35.5523 12 35V33.8571H14V35C14 35.5523 14.4477 36 15 36C15.5523 36 16 35.5523 16 35V33.8571H17.25Z" fill="black"/>
</svg>

<svg
  xmlns="http://www.w3.org/2000/svg"
  width="24"
  height="24"
  viewBox="0 0 24 24"
  fill="none"
  stroke="currentColor"
  stroke-width="2"
  stroke-linecap="round"
  stroke-linejoin="round"
>
  <path
    fill-rule="evenodd"
    d="M28 8h9v2h-9zm-.467 4H26V8a2 2 0 0 1 2-2h9a2 2 0 0 1 2 2v4h-1.533v2.195a3 3 0 0 0 1.015 2.25l1.826 1.61A5 5 0 0 1 42 21.806V37a5 5 0 0 1-5 5h-9a5 5 0 0 1-5-5V21.805a5 5 0 0 1 1.692-3.75l1.826-1.61a3 3 0 0 0 1.015-2.25zm7.934 0v2.195a5 5 0 0 0 1.692 3.75l1.826 1.61A3 3 0 0 1 40 21.806V37a3 3 0 0 1-3 3h-9a3 3 0 0 1-3-3V21.805a3 3 0 0 1 1.015-2.25l1.826-1.61a5 5 0 0 0 1.692-3.75V12zM32.5 21a.5.5 0 0 1 .5.5v2.728c.28.264.523.745.699 1.366l.801-.801V23.5a.5.5 0 0 1 .146-.354l1.5-1.5a.5.5 0 0 1 .707.708L35.5 23.707V25a.5.5 0 0 1-.147.354l-1.424 1.424.03.282 4.803.797c.157.714-.093 2.143-2.346 2.143-1.303 0-2.04-.67-2.431-1.427q-.018.319-.053.62l2.355 1.647a.5.5 0 0 1 .177.596l-.317.792 1.045.435a.5.5 0 1 1-.384.924l-1.5-.626a.5.5 0 0 1-.272-.647l.353-.882-1.655-1.158a5 5 0 0 1-.212.653l.425.85A.5.5 0 0 1 34 32v.95l1.39 1.738a.5.5 0 1 1-.78.624l-1.5-1.875a.5.5 0 0 1-.11-.312v-1.007l-.123-.246A.66.66 0 0 1 32.5 32a.64.64 0 0 1-.324-.094l-.176.44v.779a.5.5 0 0 1-.11.312l-1.5 1.875a.5.5 0 1 1-.78-.624L31 32.95v-.7q0-.097.036-.186l.448-1.12a5 5 0 0 1-.218-.67l-1.655 1.158.353.882a.5.5 0 0 1-.272.648l-1.5.624a.5.5 0 1 1-.384-.922l1.045-.436-.317-.792a.5.5 0 0 1 .177-.596l2.355-1.648q-.06-.503-.067-1.054c-.318.916-1.068 1.862-2.617 1.862-2.253 0-2.503-1.429-2.346-2.143l5.007-.831.026-.248-1.425-1.424A.5.5 0 0 1 29.5 25v-1.293l-1.354-1.353a.5.5 0 0 1 .707-.708l1.5 1.5a.5.5 0 0 1 .147.354v1.293l.802.801c.175-.621.418-1.102.698-1.366V21.5a.5.5 0 0 1 .5-.5m-4.116 8c-.75 0-1.069-.189-1.204-.319l2.679-.445-.05.08c-.25.367-.652.684-1.425.684m8.032 0c.75 0 1.069-.189 1.204-.319l-2.679-.445.05.08c.25.367.652.684 1.425.684M33 28c0 1.016-.156 1.892-.376 2.477a3 3 0 0 1-.124.287 3 3 0 0 1-.124-.287C32.156 29.892 32 29.017 32 28s.156-1.892.376-2.477q.064-.17.124-.287.06.116.124.287c.22.585.376 1.46.376 2.477M6 14.143h.75v1.102c0 .66.266 1.293.738 1.755a.46.46 0 0 1 .137.327v13.346c0 .123-.05.24-.137.327a2.46 2.46 0 0 0-.738 1.755v1.102H6V39h14v-5.143h-.75v-1.102c0-.66-.266-1.293-.738-1.755a.46.46 0 0 1-.137-.327V17.327c0-.123.05-.24.137-.327a2.46 2.46 0 0 0 .738-1.755v-1.102H20V9H6zm11.25 19.714v-1.102c0-.123-.05-.24-.137-.326a2.46 2.46 0 0 1-.738-1.756V17.327c0-.66.266-1.293.738-1.756a.46.46 0 0 0 .137-.326v-1.102H16v-1.714a1 1 0 1 0-2 0v1.714h-2v-1.714a1 1 0 1 0-2 0v1.714H8.75v1.102c0 .123.05.24.137.326.472.463.738 1.095.738 1.756v13.346c0 .66-.266 1.294-.738 1.756a.46.46 0 0 0-.137.326v1.102H10V35a1 1 0 1 0 2 0v-1.143h2V35a1 1 0 1 0 2 0v-1.143z"
    clip-rule="evenodd"
  />
</svg>
